packages/kaspersky-hexa-ui-icons/src/iconsSVGs/32/MailSpam.svg

<svg xmlns="http://www.w3.org/2000/svg" width="32" height="32" fill="none" viewBox="0 0 32 32"><path fill="#000" fill-rule="evenodd" d="M6 6c-2.2091 0-4 1.7909-4 4v12c0 2.2091 1.7909 4 4 4h9.402l1.1429-2H6c-1.1046 0-2-.8954-2-2V10c0-.4466.1464-.859.3938-1.192l8.7778 8.7778c1.5621 1.5621 4.0947 1.5621 5.6568 0l8.7778-8.7777A1.99 1.99 0 0 1 28 10v8.0281a5.2 5.2 0 0 1 .3413.5225L30 21.4533V10c0-2.2091-1.7909-4-4-4zm19.5858 2H6.4142l8.1716 8.1716c.781.781 2.0474.781 2.8284 0zm1.019 11.5428c-1.1517-2.0154-4.0578-2.0154-5.2095 0l-4.5536 7.9689c-1.1429 2 .3012 4.4884 2.6047 4.4884h9.1073c2.3034 0 3.7475-2.4884 2.6047-4.4884zm-3.473.9923c.3839-.6718 1.3526-.6718 1.7365 0l4.5536 7.9689c.381.6666-.1004 1.4961-.8682 1.4961h-9.1073c-.7678 0-1.2492-.8295-.8683-1.4961zM25 23c0-.5523-.4477-1-1-1s-1 .4477-1 1v2c0 .5523.4477 1 1 1s1-.4477 1-1zm0 5c0 .5523-.4477 1-1 1s-1-.4477-1-1 .4477-1 1-1 1 .4477 1 1"/></svg>

<svg width="32" height="32" viewBox="0 0 32 32" fill="none" xmlns="http://www.w3.org/2000/svg">
<path fill-rule="evenodd" clip-rule="evenodd" d="M6 6C3.79086 6 2 7.79086 2 10V22C2 24.2091 3.79086 26 6 26H15.402L16.5449 24H6C4.89543 24 4 23.1046 4 22V10C4 9.55337 4.1464 9.14093 4.39384 8.80805L13.1716 17.5858C14.7337 19.1479 17.2663 19.1479 18.8284 17.5858L27.6062 8.80805C27.8536 9.14093 28 9.55337 28 10V18.0281C28.1219 18.1922 28.236 18.3663 28.3413 18.5506L30 21.4533V10C30 7.79086 28.2091 6 26 6H6ZM25.5858 8H6.41421L14.5858 16.1716C15.3668 16.9526 16.6332 16.9526 17.4142 16.1716L25.5858 8Z" fill="black"/>
<path d="M24 22C24.5523 22 25 22.4477 25 23V25C25 25.5523 24.5523 26 24 26C23.4477 26 23 25.5523 23 25V23C23 22.4477 23.4477 22 24 22Z" fill="black"/>
<path d="M25 28C25 28.5523 24.5523 29 24 29C23.4477 29 23 28.5523 23 28C23 27.4477 23.4477 27 24 27C24.5523 27 25 27.4477 25 28Z" fill="black"/>
<path fill-rule="evenodd" clip-rule="evenodd" d="M21.3953 19.5428C22.547 17.5274 25.4531 17.5274 26.6048 19.5428L31.1584 27.5117C32.3012 29.5117 30.8571 32.0001 28.5537 32.0001H19.4464C17.1429 32.0001 15.6988 29.5117 16.8417 27.5117L21.3953 19.5428ZM24.8683 20.5351C24.4844 19.8633 23.5157 19.8633 23.1318 20.5351L18.5781 28.504C18.1972 29.1706 18.6786 30.0001 19.4464 30.0001H28.5537C29.3215 30.0001 29.8029 29.1706 29.4219 28.504L24.8683 20.5351Z" fill="black"/>
</svg>
